X:1
T:Title
%%score { ( 1 4 ) | ( 2 3 ) }
L:1/8
M:3/4
K:Ab
V:1 treble nm="Grand Piano"
V:4 treble 
V:2 bass 
V:3 bass 
V:1
 z2 z[Q:1/4=100] c BA | [CE]3 E [CF]A | [DG]3 d [Ec]B | [DE]3 G [DB]d | [Ec]3 c [DB]A | %5
 [CE]3 A [Ec]e | [Fd]3 d [FA]B | [Ec]3 A [B,G]B |[M:3/8] [CA]3 |[M:4/4] z2 z d- d4 | %10
 z2 z [Ac]- [Ac]4 | z2 z [FA]- [FA]4 |[M:17/16] z/ z/ z/ z/ z B/-B/-B/-B/-B/-B/-B/-B-<B | %13
[M:4/4] z2 z A- A4 | z2 z [Fd]- [Fd]4 | %15
 z8[Q:1/4=99][Q:1/4=97][Q:1/4=96][Q:1/4=94][Q:1/4=93][Q:1/4=91][Q:1/4=90][Q:1/4=88][Q:1/4=87][Q:1/4=85][Q:1/4=84][Q:1/4=82][Q:1/4=81][Q:1/4=79][Q:1/4=78][Q:1/4=76] | %16
[M:5/8] z z2 A2- | A3 z2 |] %18
V:2
 z2 z E DC | A,,E, z C z C | B,,E, z F z D | E,,E, z D z F | A,,E, z E z C | z2 A,2[K:treble] A,2 | %6
 D,A,[K:treble] z F[K:bass] z =E | E,A, CC z D |[M:3/8] A,,E,A,, | %9
[M:4/4][K:treble] z2 z G- G4[K:bass] | E,E,E,A, A,CEA, | A,C,C,F, F,F,F,F, | %12
[M:17/16] [F,CE][B,,B,][B,,A,][E,G,E][E,E][F,=D][F,D][G,_D]3/2 |[M:4/4] z2 z C- C4 | %14
 [A,,A,][A,,A,][C,A,][D,A,] D,D,D,D, | [F,_C][F,C][F,C][E,=C]- [E,C]2 [E,A,C][E,A,E]- | %16
[M:5/8] [E,A,E] [E,G,D]2 z E, | =E,E,_E, z2 |] %18
V:3
 x6 | z2 A,2 E,2 | z2 B,2 E,2 | z2 G,2 E,2 | z2 A,2 E,2 | A,,E, z[K:treble] C z _G | %6
 z2[K:treble] D2[K:bass] A,2 | z2 z2 E,2 |[M:3/8] x3 |[M:4/4][K:treble] cc .A2 E,[K:bass]E,E,E, | %10
 x8 | x8 |[M:17/16] x17/2 |[M:4/4] DD .D2 A,,A,,A,,A,, | x8 | x8 |[M:5/8] z z2 A,,2- | A,,3 z2 |] %18
V:4
 x6 | x6 | x6 | x6 | x6 | x6 | x6 | x6 |[M:3/8] A, z z |[M:4/4] ee .c2 B,B,B,B, | %10
 [EGd][EGd][EGB]E EE z E | [EAc][C=Ec][CEG]C CCCC |[M:17/16] A[=DB][Dc] z GAAE3/2 | %13
[M:4/4] EE .E2 A,A,A,A, | [CA][Ec] .[_Ge]2 A,A,A,A, | [A=d][Ad][Ad][Ae]- [Ae]2 Ec- | %16
[M:5/8] c B2 [A,C]C | _CC=C z2 |] %18

